Newaita-dark/apps/16/multimedia-photo-viewer.svg

<?xml version="1.0" encoding="UTF-8"?>
<svg xmlns="http://www.w3.org/2000/svg" xmlns:xlink="http://www.w3.org/1999/xlink" width="16pt" height="16pt" viewBox="0 0 16 16" version="1.1">
<defs>
<linearGradient id="linear0" gradientUnits="userSpaceOnUse" x1="254" y1="233.5" x2="254" y2="254.666672" gradientTransform="matrix(0.031253,0,0,0.031253,-0.00000190753,6.719392)">
<stop offset="0" style="stop-color:rgb(0%,0%,0%);stop-opacity:0.27451;"/>
<stop offset="1" style="stop-color:rgb(0%,0%,0%);stop-opacity:0;"/>
</linearGradient>
<radialGradient id="radial0" gradientUnits="userSpaceOnUse" cx="450.908936" cy="189.579361" fx="450.908936" fy="189.579361" r="21.166656" gradientTransform="matrix(0.0000000870852,-0.0390662,-0.0703192,-0.0000000507693,26.726845,31.797665)">
<stop offset="0" style="stop-color:rgb(0%,0%,0%);stop-opacity:0.313725;"/>
<stop offset="0.222222" style="stop-color:rgb(0%,0%,0%);stop-opacity:0.27451;"/>
<stop offset="1" style="stop-color:rgb(0%,0%,0%);stop-opacity:0;"/>
</radialGradient>
<radialGradient id="radial1" gradientUnits="userSpaceOnUse" cx="450.908936" cy="189.579361" fx="450.908936" fy="189.579361" r="21.166656" gradientTransform="matrix(-0.0000000870852,0.0390662,0.0703192,0.0000000507693,-10.850331,-3.76374)">
<stop offset="0" style="stop-color:rgb(0%,0%,0%);stop-opacity:0.313725;"/>
<stop offset="0.222222" style="stop-color:rgb(0%,0%,0%);stop-opacity:0.27451;"/>
<stop offset="1" style="stop-color:rgb(0%,0%,0%);stop-opacity:0;"/>
</radialGradient>
<radialGradient id="radial2" gradientUnits="userSpaceOnUse" cx="450.908936" cy="189.579361" fx="450.908936" fy="189.579361" r="21.166656" gradientTransform="matrix(-0.0000000870852,-0.0390662,0.0703192,-0.0000000507693,-10.850331,31.797665)">
<stop offset="0" style="stop-color:rgb(0%,0%,0%);stop-opacity:0.313725;"/>
<stop offset="0.222222" style="stop-color:rgb(0%,0%,0%);stop-opacity:0.27451;"/>
<stop offset="1" style="stop-color:rgb(0%,0%,0%);stop-opacity:0;"/>
</radialGradient>
<radialGradient id="radial3" gradientUnits="userSpaceOnUse" cx="450.908936" cy="189.579361" fx="450.908936" fy="189.579361" r="21.166656" gradientTransform="matrix(0.0000000870852,0.0390662,-0.0703192,0.0000000507693,26.726844,-3.763741)">
<stop offset="0" style="stop-color:rgb(0%,0%,0%);stop-opacity:0.313725;"/>
<stop offset="0.222222" style="stop-color:rgb(0%,0%,0%);stop-opacity:0.27451;"/>
<stop offset="1" style="stop-color:rgb(0%,0%,0%);stop-opacity:0;"/>
</radialGradient>
<linearGradient id="linear1" gradientUnits="userSpaceOnUse" x1="305.954559" y1="-31.87709" x2="305.954559" y2="-135.329163" gradientTransform="matrix(0.0376748,0,0,0.108706,-2.927007,16.820674)">
<stop offset="0" style="stop-color:rgb(25.882353%,64.705882%,96.078431%);stop-opacity:1;"/>
<stop offset="1" style="stop-color:rgb(62.352941%,65.882353%,85.490196%);stop-opacity:1;"/>
</linearGradient>
<linearGradient id="linear2" gradientUnits="userSpaceOnUse" x1="960" y1="1615.118164" x2="960" y2="1015.118103" gradientTransform="matrix(0.00826902,0,0,0.00826902,0,0.661529)">
<stop offset="0" style="stop-color:rgb(21.568627%,27.843137%,30.980392%);stop-opacity:1;"/>
<stop offset="1" style="stop-color:rgb(27.058824%,35.294118%,39.215686%);stop-opacity:1;"/>
</linearGradient>
<linearGradient id="linear3" gradientUnits="userSpaceOnUse" x1="1400" y1="695.118103" x2="1400" y2="455.118103" gradientTransform="matrix(0.00826902,0,0,0.00826902,0,0)">
<stop offset="0" style="stop-color:rgb(99.215686%,84.705882%,20.784314%);stop-opacity:1;"/>
<stop offset="1" style="stop-color:rgb(100%,94.509804%,46.27451%);stop-opacity:1;"/>
</linearGradient>
</defs>
<g id="surface1">
<path style=" stroke:none;fill-rule:nonzero;fill:url(#linear0);" d="M 2.316406 14.015625 L 13.5625 14.015625 L 13.5625 14.660156 L 2.316406 14.660156 Z M 2.316406 14.015625 "/>
<path style=" stroke:none;fill-rule:nonzero;fill:url(#radial0);" d="M 13.5625 14.015625 L 14.882812 14.015625 L 14.882812 13.355469 L 13.5625 13.355469 Z M 13.5625 14.015625 "/>
<path style=" stroke:none;fill-rule:nonzero;fill:url(#radial1);" d="M 2.316406 14.015625 L 0.992188 14.015625 L 0.992188 14.679688 L 2.316406 14.679688 Z M 2.316406 14.015625 "/>
<path style=" stroke:none;fill-rule:nonzero;fill:url(#radial2);" d="M 2.316406 14.015625 L 0.992188 14.015625 L 0.992188 13.355469 L 2.316406 13.355469 Z M 2.316406 14.015625 "/>
<path style=" stroke:none;fill-rule:nonzero;fill:url(#radial3);" d="M 13.5625 14.015625 L 14.882812 14.015625 L 14.882812 14.679688 L 13.5625 14.679688 Z M 13.5625 14.015625 "/>
<path style=" stroke:none;fill-rule:nonzero;fill:url(#linear1);" d="M 1.652344 2.109375 L 14.222656 2.109375 C 14.589844 2.109375 14.882812 2.40625 14.882812 2.769531 L 14.882812 13.355469 C 14.882812 13.722656 14.589844 14.015625 14.222656 14.015625 L 1.652344 14.015625 C 1.289062 14.015625 0.992188 13.722656 0.992188 13.355469 L 0.992188 2.769531 C 0.992188 2.40625 1.289062 2.109375 1.652344 2.109375 Z M 1.652344 2.109375 "/>
<path style=" stroke:none;fill-rule:nonzero;fill:url(#linear2);" d="M 0.992188 10.378906 L 0.992188 13.355469 C 0.992188 13.722656 1.289062 14.015625 1.652344 14.015625 L 14.222656 14.015625 C 14.589844 14.015625 14.882812 13.722656 14.882812 13.355469 L 14.882812 10.378906 C 12.132812 11.988281 11.242188 10.195312 10.121094 9.902344 C 8.917969 9.585938 8.691406 11.015625 7.480469 10.871094 C 6.269531 10.722656 4.726562 8.898438 3.609375 9.011719 C 2.492188 9.128906 1.933594 9.785156 0.992188 10.378906 Z M 0.992188 10.378906 "/>
<path style=" stroke:none;fill-rule:nonzero;fill:url(#linear3);" d="M 11.578125 3.761719 C 11.394531 3.761719 11.226562 3.8125 11.082031 3.894531 C 11.378906 4.066406 11.578125 4.386719 11.578125 4.753906 C 11.578125 5.125 11.378906 5.445312 11.082031 5.617188 C 11.226562 5.699219 11.394531 5.746094 11.578125 5.746094 C 12.125 5.746094 12.570312 5.304688 12.570312 4.753906 C 12.570312 4.207031 12.125 3.761719 11.578125 3.761719 Z M 11.578125 3.761719 "/>
<path style=" stroke:none;fill-rule:nonzero;fill:rgb(0%,0%,0%);fill-opacity:0.470588;" d="M 2.644531 3.101562 C 2.28125 3.101562 1.984375 3.398438 1.984375 3.761719 L 1.984375 11.703125 C 1.984375 12.066406 2.28125 12.363281 2.644531 12.363281 L 13.230469 12.363281 C 13.597656 12.363281 13.890625 12.066406 13.890625 11.703125 L 13.890625 3.761719 C 13.890625 3.398438 13.597656 3.101562 13.230469 3.101562 Z M 2.644531 3.183594 L 13.230469 3.183594 C 13.550781 3.183594 13.808594 3.441406 13.808594 3.761719 L 13.808594 11.703125 C 13.808594 12.023438 13.550781 12.28125 13.230469 12.28125 L 2.644531 12.28125 C 2.324219 12.28125 2.066406 12.023438 2.066406 11.703125 L 2.066406 3.761719 C 2.066406 3.441406 2.324219 3.183594 2.644531 3.183594 Z M 2.644531 3.183594 "/>
<path style=" stroke:none;fill-rule:nonzero;fill:rgb(84.313726%,84.313726%,84.313726%);fill-opacity:0.588235;" d="M 2.644531 3.183594 C 2.324219 3.183594 2.066406 3.441406 2.066406 3.761719 L 2.066406 11.703125 C 2.066406 12.023438 2.324219 12.28125 2.644531 12.28125 L 13.230469 12.28125 C 13.550781 12.28125 13.808594 12.023438 13.808594 11.703125 L 13.808594 3.761719 C 13.808594 3.441406 13.550781 3.183594 13.230469 3.183594 Z M 2.644531 3.265625 L 13.230469 3.265625 C 13.503906 3.265625 13.726562 3.488281 13.726562 3.761719 L 13.726562 11.703125 C 13.726562 11.976562 13.503906 12.199219 13.230469 12.199219 L 2.644531 12.199219 C 2.371094 12.199219 2.148438 11.976562 2.148438 11.703125 L 2.148438 3.761719 C 2.148438 3.488281 2.371094 3.265625 2.644531 3.265625 Z M 2.644531 3.265625 "/>
<path style=" stroke:none;fill-rule:nonzero;fill:rgb(0%,0%,0%);fill-opacity:0.196078;" d="M 2.644531 3.265625 L 13.230469 3.265625 C 13.503906 3.265625 13.726562 3.480469 13.726562 3.746094 L 13.726562 11.722656 C 13.726562 11.984375 13.503906 12.199219 13.230469 12.199219 L 2.644531 12.199219 C 2.371094 12.199219 2.148438 11.984375 2.148438 11.722656 L 2.148438 3.746094 C 2.148438 3.480469 2.371094 3.265625 2.644531 3.265625 Z M 2.644531 3.265625 "/>
<path style=" stroke:none;fill-rule:nonzero;fill:rgb(89.019608%,89.019608%,89.019608%);fill-opacity:0.117647;" d="M 2.644531 3.351562 C 2.417969 3.351562 2.234375 3.535156 2.234375 3.761719 L 2.234375 6.535156 C 4.875 5.414062 8.117188 4.753906 11.628906 4.753906 C 12.3125 4.753906 12.984375 4.78125 13.644531 4.828125 L 13.644531 3.761719 C 13.644531 3.535156 13.460938 3.351562 13.230469 3.351562 Z M 2.644531 3.351562 "/>
<path style=" stroke:none;fill-rule:nonzero;fill:rgb(100%,100%,100%);fill-opacity:0.392157;" d="M 1.652344 2.109375 C 1.289062 2.109375 0.992188 2.40625 0.992188 2.769531 L 0.992188 3.019531 C 0.992188 2.652344 1.289062 2.355469 1.652344 2.355469 L 14.222656 2.355469 C 14.589844 2.355469 14.882812 2.652344 14.882812 3.019531 L 14.882812 2.769531 C 14.882812 2.40625 14.589844 2.109375 14.222656 2.109375 Z M 1.652344 2.109375 "/>
<path style=" stroke:none;fill-rule:nonzero;fill:rgb(0%,0%,0%);fill-opacity:0.235294;" d="M 1.652344 14.015625 C 1.289062 14.015625 0.992188 13.722656 0.992188 13.355469 L 0.992188 13.109375 C 0.992188 13.476562 1.289062 13.769531 1.652344 13.769531 L 14.222656 13.769531 C 14.589844 13.769531 14.882812 13.476562 14.882812 13.109375 L 14.882812 13.355469 C 14.882812 13.722656 14.589844 14.015625 14.222656 14.015625 Z M 1.652344 14.015625 "/>
<path style="fill:none;stroke-width:3;stroke-linecap:round;stroke-linejoin:miter;stroke:rgb(12.941177%,12.941177%,12.941177%);stroke-opacity:1;stroke-miterlimit:4;" d="M 52.869951 -147.506445 L 455.081542 -147.506445 C 466.83042 -147.506445 476.204525 -138.007352 476.204525 -126.383462 L 476.204525 212.334192 C 476.204525 224.08307 466.83042 233.457174 455.081542 233.457174 L 52.869951 233.457174 C 41.246061 233.457174 31.746968 224.08307 31.746968 212.334192 L 31.746968 -126.383462 C 31.746968 -138.007352 41.246061 -147.506445 52.869951 -147.506445 Z M 52.869951 -147.506445 " transform="matrix(0.031253,0,0,0.031253,0,6.719392)"/>
</g>
</svg>

<svg xmlns="http://www.w3.org/2000/svg" width="16pt" height="16pt" viewBox="0 0 16 16"><defs><linearGradient id="a" gradientUnits="userSpaceOnUse" x1="254" y1="233.5" x2="254" y2="254.667" gradientTransform="matrix(.03125 0 0 .03125 0 6.72)"><stop offset="0" stop-opacity=".275"/><stop offset="1" stop-opacity="0"/></linearGradient><radialGradient id="b" gradientUnits="userSpaceOnUse" cx="450.909" cy="189.579" fx="450.909" fy="189.579" r="21.167" gradientTransform="matrix(0 -.03907 -.07032 0 26.727 31.798)"><stop offset="0" stop-opacity=".314"/><stop offset=".222" stop-opacity=".275"/><stop offset="1" stop-opacity="0"/></radialGradient><radialGradient id="c" gradientUnits="userSpaceOnUse" cx="450.909" cy="189.579" fx="450.909" fy="189.579" r="21.167" gradientTransform="matrix(0 .03907 .07032 0 -10.85 -3.764)"><stop offset="0" stop-opacity=".314"/><stop offset=".222" stop-opacity=".275"/><stop offset="1" stop-opacity="0"/></radialGradient><radialGradient id="d" gradientUnits="userSpaceOnUse" cx="450.909" cy="189.579" fx="450.909" fy="189.579" r="21.167" gradientTransform="matrix(0 -.03907 .07032 0 -10.85 31.798)"><stop offset="0" stop-opacity=".314"/><stop offset=".222" stop-opacity=".275"/><stop offset="1" stop-opacity="0"/></radialGradient><radialGradient id="e" gradientUnits="userSpaceOnUse" cx="450.909" cy="189.579" fx="450.909" fy="189.579" r="21.167" gradientTransform="matrix(0 .03907 -.07032 0 26.727 -3.764)"><stop offset="0" stop-opacity=".314"/><stop offset=".222" stop-opacity=".275"/><stop offset="1" stop-opacity="0"/></radialGradient><linearGradient id="f" gradientUnits="userSpaceOnUse" x1="305.955" y1="-31.877" x2="305.955" y2="-135.329" gradientTransform="matrix(.03767 0 0 .1087 -2.927 16.82)"><stop offset="0" stop-color="#42a5f5"/><stop offset="1" stop-color="#9fa8da"/></linearGradient><linearGradient id="g" gradientUnits="userSpaceOnUse" x1="960" y1="1615.118" x2="960" y2="1015.118" gradientTransform="matrix(.00827 0 0 .00827 0 .662)"><stop offset="0" stop-color="#37474f"/><stop offset="1" stop-color="#455a64"/></linearGradient><linearGradient id="h" gradientUnits="userSpaceOnUse" x1="1400" y1="695.118" x2="1400" y2="455.118" gradientTransform="rotate(.882) scale(.00827)"><stop offset="0" stop-color="#fdd835"/><stop offset="1" stop-color="#fff176"/></linearGradient></defs><path d="M2.316 14.016h11.246v.644H2.316zm0 0" fill="url(#a)"/><path d="M13.563 14.016h1.32v-.66h-1.32zm0 0" fill="url(#b)"/><path d="M2.316 14.016H.992v.664h1.324zm0 0" fill="url(#c)"/><path d="M2.316 14.016H.992v-.66h1.324zm0 0" fill="url(#d)"/><path d="M13.563 14.016h1.32v.664h-1.32zm0 0" fill="url(#e)"/><path d="M1.652 2.11h12.57a.66.66 0 0 1 .66.66v10.585c0 .368-.292.66-.66.66H1.653a.66.66 0 0 1-.66-.66V2.77c0-.364.297-.66.66-.66zm0 0" fill="url(#f)"/><path d="M.992 10.379v2.976c0 .368.297.66.66.66h12.57c.368 0 .66-.292.66-.66V10.38c-2.75 1.61-3.64-.184-4.76-.477-1.204-.316-1.43 1.114-2.642.97-1.21-.15-2.753-1.974-3.87-1.86-1.118.117-1.676.773-2.618 1.367zm0 0" fill="url(#g)"/><path d="M11.578 3.762a1 1 0 0 0-.496.133.991.991 0 0 1 .496.859c0 .371-.2.691-.496.863a.998.998 0 0 0 .496.13.991.991 0 1 0 0-1.985zm0 0" fill="url(#h)"/><path d="M2.645 3.102a.662.662 0 0 0-.66.66v7.941c0 .363.296.66.66.66H13.23a.66.66 0 0 0 .66-.66V3.762a.66.66 0 0 0-.66-.66zm0 .082H13.23c.32 0 .579.257.579.578v7.941c0 .32-.258.578-.579.578H2.645a.577.577 0 0 1-.579-.578V3.762c0-.32.258-.578.579-.578zm0 0" fill-opacity=".471"/><path d="M2.645 3.184a.577.577 0 0 0-.579.578v7.941c0 .32.258.578.579.578H13.23c.32 0 .579-.258.579-.578V3.762a.577.577 0 0 0-.579-.578zm0 .082H13.23c.274 0 .497.222.497.496v7.941a.497.497 0 0 1-.497.496H2.645a.497.497 0 0 1-.497-.496V3.762c0-.274.223-.496.497-.496zm0 0" fill="#d7d7d7" fill-opacity=".588"/><path d="M2.645 3.266H13.23c.274 0 .497.214.497.48v7.977a.488.488 0 0 1-.497.476H2.645a.488.488 0 0 1-.497-.476V3.746c0-.266.223-.48.497-.48zm0 0" fill-opacity=".196"/><path d="M2.645 3.352a.41.41 0 0 0-.41.41v2.773c2.64-1.12 5.882-1.781 9.394-1.781.684 0 1.355.027 2.016.074V3.762a.411.411 0 0 0-.415-.41zm0 0" fill="#e3e3e3" fill-opacity=".118"/><path d="M1.652 2.11a.662.662 0 0 0-.66.66v.25c0-.368.297-.665.66-.665h12.57a.66.66 0 0 1 .66.665v-.25a.66.66 0 0 0-.66-.66zm0 0" fill="#fff" fill-opacity=".392"/><path d="M1.652 14.016a.66.66 0 0 1-.66-.66v-.247c0 .368.297.66.66.66h12.57c.368 0 .66-.292.66-.66v.246c0 .368-.292.66-.66.66zm0 0" fill-opacity=".235"/><path d="M1.652 2.11h12.57a.66.66 0 0 1 .66.66v10.585c0 .368-.292.66-.66.66H1.653a.66.66 0 0 1-.66-.66V2.77c0-.364.297-.66.66-.66zm0 0" fill="none" stroke-width=".09375" stroke-linecap="round" stroke="#212121"/></svg>
